packages/ffe-icons/icons/filled/md/smart_screen.svg

<svg xmlns="http://www.w3.org/2000/svg" height="24" viewBox="0 -960 960 960" width="24"><path d="M132.309-220.001q-30.308 0-51.308-21t-21-51.308v-375.382q0-30.308 21-51.308t51.308-21h695.382q30.308 0 51.308 21t21 51.308v375.382q0 30.308-21 51.308t-51.308 21H132.309ZM229.999-280h500.002v-400H229.999v400ZM530-452.308q-12 0-19.846-7.846T502.308-480q0-12 7.846-19.846T530-507.692q12 0 19.846 7.846T557.692-480q0 12-7.846 19.846T530-452.308Zm-200 0q-12 0-19.846-7.846T302.308-480q0-12 7.846-19.846T330-507.692q12 0 19.846 7.846T357.692-480q0 12-7.846 19.846T330-452.308Zm300 0q-12 0-19.846-7.846T602.308-480q0-12 7.846-19.846T630-507.692q12 0 19.846 7.846T657.692-480q0 12-7.846 19.846T630-452.308Zm-200 0q-12 0-19.846-7.846T402.308-480q0-12 7.846-19.846T430-507.692q12 0 19.846 7.846T457.692-480q0 12-7.846 19.846T430-452.308Z"/></svg>

<svg xmlns="http://www.w3.org/2000/svg" height="24" viewBox="0 -960 960 960" width="24"><path d="M132.31-220Q102-220 81-241q-21-21-21-51.31v-375.38Q60-698 81-719q21-21 51.31-21h695.38Q858-740 879-719q21 21 21 51.31v375.38Q900-262 879-241q-21 21-51.31 21H132.31ZM230-280h500v-400H230v400Zm300-172.31q-12 0-19.85-7.84-7.84-7.85-7.84-19.85 0-12 7.84-19.85 7.85-7.84 19.85-7.84 12 0 19.85 7.84 7.84 7.85 7.84 19.85 0 12-7.84 19.85-7.85 7.84-19.85 7.84Zm-200 0q-12 0-19.85-7.84-7.84-7.85-7.84-19.85 0-12 7.84-19.85 7.85-7.84 19.85-7.84 12 0 19.85 7.84 7.84 7.85 7.84 19.85 0 12-7.84 19.85-7.85 7.84-19.85 7.84Zm300 0q-12 0-19.85-7.84-7.84-7.85-7.84-19.85 0-12 7.84-19.85 7.85-7.84 19.85-7.84 12 0 19.85 7.84 7.84 7.85 7.84 19.85 0 12-7.84 19.85-7.85 7.84-19.85 7.84Zm-200 0q-12 0-19.85-7.84-7.84-7.85-7.84-19.85 0-12 7.84-19.85 7.85-7.84 19.85-7.84 12 0 19.85 7.84 7.84 7.85 7.84 19.85 0 12-7.84 19.85-7.85 7.84-19.85 7.84Z"/></svg>
